X: 1
T: Ruileadh cailleach, sheatadh cailleach
C: Trad.
M: 2/2
R: reel
K: Amaj
AB |: cee/e/e faec | ecec B2 |1 AB | cee/e/e faec | ecec A2AB :|
                               =g2 | a2gf dfeA | dBec A4 
   |: a2gf dfeA | d2ef dfec | a2gf dfeA | dBec A4 :|
 